src/assets/icons/user.svg

<svg width="15" height="15" viewBox="0 0 15 15" fill="none" xmlns="http://www.w3.org/2000/svg">
<path d="M13.8102 9.52183C13.313 9.08501 12.7102 8.70758 12.0181 8.40008C11.7223 8.2687 11.3761 8.40191 11.2447 8.69762C11.1134 8.99334 11.2466 9.33952 11.5423 9.47102C12.1258 9.73034 12.6287 10.0436 13.0367 10.4021C13.5396 10.8441 13.8281 11.484 13.8281 12.1582V13.2422C13.8281 13.5653 13.5653 13.8281 13.2422 13.8281H1.75781C1.43475 13.8281 1.17188 13.5653 1.17188 13.2422V12.1582C1.17188 11.484 1.46038 10.8441 1.96335 10.4021C2.55535 9.88186 4.2802 8.67188 7.5 8.67188C9.89079 8.67188 11.8359 6.72672 11.8359 4.33594C11.8359 1.94515 9.89079 0 7.5 0C5.10921 0 3.16406 1.94515 3.16406 4.33594C3.16406 5.7336 3.82896 6.97872 4.85893 7.77214C2.97432 8.18642 1.80199 8.98384 1.18984 9.52183C0.433731 10.1862 0 11.147 0 12.1582V13.2422C0 14.2115 0.788498 15 1.75781 15H13.2422C14.2115 15 15 14.2115 15 13.2422V12.1582C15 11.147 14.5663 10.1862 13.8102 9.52183ZM4.33594 4.33594C4.33594 2.59129 5.75535 1.17188 7.5 1.17188C9.24465 1.17188 10.6641 2.59129 10.6641 4.33594C10.6641 6.08059 9.24465 7.5 7.5 7.5C5.75535 7.5 4.33594 6.08059 4.33594 4.33594Z" fill="#696969"/>
</svg>

<svg xmlns="http://www.w3.org/2000/svg" width="15" height="15" fill="none"><path fill="#696969" d="M13.81 9.522A7.026 7.026 0 0 0 12.018 8.4a.586.586 0 1 0-.476 1.071c.584.26 1.087.573 1.495.931.503.442.791 1.082.791 1.756v1.084a.587.587 0 0 1-.586.586H1.758a.587.587 0 0 1-.586-.586v-1.084c0-.674.288-1.314.791-1.756.592-.52 2.317-1.73 5.537-1.73a4.34 4.34 0 0 0 4.336-4.336A4.34 4.34 0 0 0 7.5 0a4.34 4.34 0 0 0-4.336 4.336A4.33 4.33 0 0 0 4.86 7.772c-1.885.414-3.057 1.212-3.67 1.75A3.508 3.508 0 0 0 0 12.158v1.084C0 14.212.788 15 1.758 15h11.484A1.76 1.76 0 0 0 15 13.242v-1.084a3.508 3.508 0 0 0-1.19-2.636ZM4.336 4.336A3.168 3.168 0 0 1 7.5 1.172a3.168 3.168 0 0 1 3.164 3.164A3.168 3.168 0 0 1 7.5 7.5a3.168 3.168 0 0 1-3.164-3.164Z"/></svg>
